tnt-russia-btg-map/map/images/RU_Armour_Army_HQ.svg

<svg width="50" height="50" viewBox="0 0 50 50" fill="none" xmlns="http://www.w3.org/2000/svg">
<path d="M19.5156 10.6575L35.6587 26.8006L19.5156 42.9437L3.37253 26.8006L19.5156 10.6575Z" fill="#E8777B" stroke="#232323"/>
<path d="M19.5209 31.62C24.9389 31.62 29.3309 29.462 29.3309 26.8C29.3309 24.138 24.9389 21.98 19.5209 21.98C14.103 21.98 9.71094 24.138 9.71094 26.8C9.71094 29.462 14.103 31.62 19.5209 31.62Z" stroke="#232323" stroke-miterlimit="10"/>
<path d="M10.0991 5.30989L8.39906 2.13989H10.0391L10.6091 3.36989C10.7591 3.66989 10.8991 4.00989 11.0791 4.41989H11.1191C11.2691 4.00989 11.4091 3.66989 11.5391 3.36989L12.0591 2.13989H13.6291L11.9391 5.37989L13.7391 8.65989H12.0991L11.4491 7.32989C11.2891 6.98989 11.1391 6.65989 10.9591 6.25989H10.9191C10.7691 6.65989 10.6191 6.98989 10.4791 7.32989L9.86906 8.65989H8.28906L10.0991 5.30989Z" fill="#232323"/>
<path d="M15.7709 5.30989L14.0709 2.13989H15.7109L16.2809 3.36989C16.4309 3.66989 16.5709 4.00989 16.7509 4.41989H16.7909C16.9409 4.00989 17.0809 3.66989 17.2109 3.36989L17.7309 2.13989H19.3009L17.6109 5.37989L19.4109 8.65989H17.7709L17.1209 7.32989C16.9609 6.98989 16.8109 6.65989 16.6309 6.25989H16.5909C16.4409 6.65989 16.2909 6.98989 16.1509 7.32989L15.5409 8.65989H13.9609L15.7709 5.30989Z" fill="#232323"/>
<path d="M21.4428 5.30989L19.7428 2.13989H21.3828L21.9528 3.36989C22.1028 3.66989 22.2428 4.00989 22.4228 4.41989H22.4628C22.6128 4.00989 22.7528 3.66989 22.8828 3.36989L23.4028 2.13989H24.9728L23.2828 5.37989L25.0828 8.65989H23.4428L22.7928 7.32989C22.6328 6.98989 22.4828 6.65989 22.3028 6.25989H22.2628C22.1128 6.65989 21.9628 6.98989 21.8228 7.32989L21.2128 8.65989H19.6328L21.4428 5.30989Z" fill="#232323"/>
<path d="M27.1069 5.30989L25.4069 2.13989H27.0469L27.6169 3.36989C27.7669 3.66989 27.9069 4.00989 28.0869 4.41989H28.1269C28.2769 4.00989 28.4169 3.66989 28.5469 3.36989L29.0669 2.13989H30.6369L28.9469 5.37989L30.7469 8.65989H29.1069L28.4569 7.32989C28.2969 6.98989 28.1469 6.65989 27.9669 6.25989H27.9269C27.7769 6.65989 27.6269 6.98989 27.4869 7.32989L26.8769 8.65989H25.2969L27.1069 5.30989Z" fill="#232323"/>
<path d="M3.36719 48.69V26.8" stroke="#232323"/>
</svg>

<svg enable-background="new 0 0 50 50" viewBox="0 0 50 50" xmlns="http://www.w3.org/2000/svg"><path d="m8.1 15.39h22.83v22.83h-22.83z" fill="#e8777b" stroke="#232323" transform="matrix(.7071 .7071 -.7071 .7071 24.6715 -5.9523)"/><ellipse cx="19.52" cy="26.8" fill="none" rx="9.81" ry="4.82" stroke="#232323" stroke-miterlimit="10"/><g fill="#232323"><path d="m10.1 5.31-1.7-3.17h1.64l.57 1.23c.15.3.29.64.47 1.05h.04c.15-.41.29-.75.42-1.05l.52-1.23h1.57l-1.69 3.24 1.8 3.28h-1.64l-.65-1.33c-.16-.34-.31-.67-.49-1.07h-.04c-.15.4-.3.73-.44 1.07l-.61 1.33h-1.58z"/><path d="m15.77 5.31-1.7-3.17h1.64l.57 1.23c.15.3.29.64.47 1.05h.04c.15-.41.29-.75.42-1.05l.52-1.23h1.57l-1.69 3.24 1.8 3.28h-1.64l-.65-1.33c-.16-.34-.31-.67-.49-1.07h-.04c-.15.4-.3.73-.44 1.07l-.61 1.33h-1.58z"/><path d="m21.44 5.31-1.7-3.17h1.64l.57 1.23c.15.3.29.64.47 1.05h.04c.15-.41.29-.75.42-1.05l.52-1.23h1.57l-1.69 3.24 1.8 3.28h-1.64l-.65-1.33c-.16-.34-.31-.67-.49-1.07h-.04c-.15.4-.3.73-.44 1.07l-.61 1.33h-1.58z"/><path d="m27.11 5.31-1.7-3.17h1.64l.57 1.23c.15.3.29.64.47 1.05h.04c.15-.41.29-.75.42-1.05l.52-1.23h1.57l-1.69 3.24 1.8 3.28h-1.64l-.65-1.33c-.16-.34-.31-.67-.49-1.07h-.04c-.15.4-.3.73-.44 1.07l-.61 1.33h-1.58z"/><path d="m36.39 5.88c0-1.76.48-3.2 1.32-4.57l.92.38c-.73 1.3-1.05 2.77-1.05 4.19s.32 2.89 1.05 4.19l-.92.38c-.84-1.37-1.32-2.81-1.32-4.57z"/><path d="m39.54 5.66h3.94v.94h-3.94z"/><path d="m44.39 10.07c.74-1.3 1.06-2.77 1.06-4.19s-.32-2.89-1.06-4.19l.92-.38c.84 1.37 1.32 2.81 1.32 4.57s-.48 3.2-1.32 4.57z"/></g><path d="m3.37 48.69v-21.89" fill="none" stroke="#232323"/></svg>
